elements/app-hax/lib/assets/images/Home.svg

<svg xmlns="http://www.w3.org/2000/svg" fill="none" width="15" height="15" viewBox="0 0 15 15"><path d="M1 6v2h2v6h9V8h2V6h-1V5h-1V4h-1V3h-1V2H9V1H6v1H5v1H4v1H3v1H2v1H1Zm7 7H4V7H3V6h1V5h1V4h1V3h1V2h1v1h1v1h1v1h1v1h1v1h-1v6H8Z" fill="#000" fill-rule="evenodd" clip-rule="evenodd"/><path d="M5 11V9h1v2H5Z" stroke="#000" stroke-width=".25"/><path d="M7 11v2h1v-2H7Z" fill="#101010" stroke="#000" stroke-width=".5"/><path d="M7 6V5h1v1H7Z" stroke="#000" stroke-width=".25"/><path d="M4 7.25h7" stroke="#000" stroke-width=".5"/><path d="M9 11V9h1v2H9Z" stroke="#000" stroke-width=".25"/></svg>

<svg width="15" height="15" viewBox="0 0 15 15" fill="none" xmlns="http://www.w3.org/2000/svg">
<path fill-rule="evenodd" clip-rule="evenodd" d="M1 6V8H3V14H12V8H14V6H13V5H12V4H11V3H10V2H9V1H6V2H5V3H4V4H3V5H2V6H1ZM8 13H7H4V7H3V6H4V5H5V4H6V3H7V2H8V3H9V4H10V5H11V6H12V7H11V13H8Z" fill="black"/>
<path d="M5 11V9H6V11H5Z" stroke="black" stroke-width="0.25"/>
<path d="M7 11V13H8V11H7Z" fill="#101010" stroke="black" stroke-width="0.5"/>
<path d="M7 6V5H8V6H7Z" stroke="black" stroke-width="0.25"/>
<path d="M4 7.25H11" stroke="black" stroke-width="0.5"/>
<path d="M9 11V9H10V11H9Z" stroke="black" stroke-width="0.25"/>
</svg>
